X:1
T:Title
%%score { ( 1 4 6 ) | ( 2 3 5 ) }
L:1/8
M:9/8
K:Eb
V:1 treble nm="Grand Piano"
V:4 treble 
V:6 treble 
V:2 treble 
V:3 treble 
V:5 treble 
V:1
 z3 z3[Q:1/4=100] B=AB | [Ge]3 [GB]3 AGA | [Ac]3 [GB]3 BAG | [FA]3- [FA]2 G F2 B |[M:3/4] [EG]6 | %5
[M:3/8] B=AB |[M:9/8] [Ge]3 [GB]3 B=AB | [Bd]3 [Ac]3 FGA | [Ac]3- [Ac]2 B A2 F | [G,E]6- [G,E]2 z | %10
 [DF]2 F B2 B =AGA | [DB]3 z3 .D3 | B2 B [Gc]2 c d2 e |[M:15/16] [Fd]3/2-[Fd]3/2-[Fd]3/2- [Fd]3 | %14
[M:3/8] B z z |[M:9/8] [Ge]6 z3 | z3 [Ac]6 | [GB]=AB c=Bc [_Gd]cd | [Ge]8- [Ge] | %19
[Q:1/4=105] [Ge]2 [Ge] [Ae]2 [Ae] ed[_Gc] | [GB]3 [EG]6 | %21
 [DFB]2 [DFB] [EF=A]2 [EFA] [B,F_A]2 [B,FA] | [B,EG]8- [B,EG] | %23
 [EGB]2 [EGB] [EGB]2 [EGB] [EBe]2 [EBe] | [Bd]2- [EBd] [Ac]2- [EA-c-] [EA-c-]2 [EAc] | %25
 B2 B e2 e dc[Ad] |[M:15/16] [Ge]3/2-[Ge]3/2-[Ge]3/2- [Ge]3 |] %27
V:2
 z3 z3 G_G=G | E,,G,,B,, E,3[K:treble] F=EF | E,,G,,B,, E,3[K:treble] GF=E | B,,,D,,F,, z2 E D2 D | %4
[M:3/4] E,,G,, B,, E,3 |[M:3/8][K:treble] G_G=G |[M:9/8][K:bass] E,,G,,B,, E,3[K:treble] G_G=G | %7
 A,,,C,,E,, A,,3 D[K:treble]EF | B,,,D,,F,, z2[K:treble] G F2[K:bass] B, | E,,G,,B,, E,,6 | %10
 z2[K:treble] D F2 F[K:bass] E2 E | [B,,F,B,]3 [F,B,D]3 .[F,B,]3 | %12
 D2 D z2[K:treble] G [B,F]2 [=A,F] |[M:15/16][K:bass] [B,,B,]3 F,3/2- F,3 |[M:3/8] z[K:treble] cA | %15
[M:9/8][K:bass] [E,,E,]3 z2 G z =EF | [A,,A,]3 [E,A,C]3 .[E,A,]3 | %17
 z[K:treble] _G=G[K:bass] z2 A z[K:treble] AA | E,,G,,B,, E,,6 | %19
 [E,B,]2 [E,B,] [E,C]2 [E,C] [E,=A,]2 [E,A,] | [E,B,]2 E, E,2 E, E,2 E, | B,,2 B,, C,2 C, D,2 D, | %22
 E,8- E, | E,2 E, E,2 E, G,2 G, | A,2 A, A,2 A, A,2 A, | %25
 [B,EG]2 [B,EG] [B,G]2 [B,G][K:bass] [B,,B,]2 [B,,B,] | %26
[M:15/16] [E,B,]3/2-[E,B,]3/2-[E,B,]3/2- [E,B,]3 |] %27
V:3
 x9 | x6[K:treble] x3 | x6[K:treble] x3 | z3 B,,3 z3 |[M:3/4] x6 |[M:3/8][K:treble] x3 | %6
[M:9/8][K:bass] x6[K:treble] x3 | x7[K:treble] x2 | z3 B,,3[K:treble] z3[K:bass] | x9 | %10
 [B,,F,B,]3[K:treble] [F,B,D]3[K:bass] [F,C]3 | x9 | [G,B,-]3 B,3[K:treble] z3 | %13
[M:15/16][K:bass] x15/2 |[M:3/8] F,3[K:treble] |[M:9/8][K:bass] z3 [E,G,]3 [E,G,B,]3 | x9 | %17
 [B,,B,]3[K:treble][K:bass] [F,A,B,]3 [B,,B,]3[K:treble] | x9 | x9 | x9 | x9 | x9 | x9 | x9 | %25
 x6[K:bass] x3 |[M:15/16] x15/2 |] %27
V:4
 x9 | x9 | x9 | x9 |[M:3/4] x6 |[M:3/8] x3 |[M:9/8] x9 | x9 | x9 | z3 E,6 | x9 | z3 F6 | x9 | %13
[M:15/16] z3 [B,D]3/2- [B,D]3 |[M:3/8] [B,-D-A]2 [B,Dd] |[M:9/8] z3 z2 B [FA]GA | [Bd]3 z3 .C3 | %17
 z3 .[D_A]3 z3 | z3 E,6 | z3 z3 ._G3 | z2 B, B,2 B, B,2 B, | x9 | x9 | x9 | .E3 .E3 z3 | %25
 z3 z3 .A3 |[M:15/16] x15/2 |] %27
V:5
 x9 | x6[K:treble] x3 | x6[K:treble] x3 | x9 |[M:3/4] x6 |[M:3/8][K:treble] x3 | %6
[M:9/8][K:bass] x6[K:treble] x3 | x7[K:treble] x2 | x5[K:treble] x3[K:bass] x | x9 | %10
 x2[K:treble] x4[K:bass] x3 | x9 | z3 E,3[K:treble] F,3 |[M:15/16][K:bass] x15/2 | %14
[M:3/8] x[K:treble] x2 |[M:9/8][K:bass] x9 | x9 | x[K:treble] x2[K:bass] x4[K:treble] x2 | x9 | %19
 x9 | x9 | x9 | x9 | x9 | x9 | x6[K:bass] x3 |[M:15/16] x15/2 |] %27
V:6
 x9 | x9 | x9 | x9 |[M:3/4] x6 |[M:3/8] x3 |[M:9/8] x9 | x9 | x9 | x9 | x9 | x9 | x9 | %13
[M:15/16] x15/2 |[M:3/8] x3 |[M:9/8] z3 B,3 z3 | x9 | x9 | x9 | x9 | x9 | x9 | x9 | x9 | x9 | x9 | %26
[M:15/16] x15/2 |] %27

